SVG_Azure_Grouped/Identity/Managed Identity.svg

<?xml version="1.0" encoding="UTF-8" standalone="no"?>
<!-- Generated by Microsoft Visio, SVG Export Managed Identity.svg Page-1 -->

<svg
   xmlns:dc="http://purl.org/dc/elements/1.1/"
   xmlns:cc="http://creativecommons.org/ns#"
   xmlns:rdf="http://www.w3.org/1999/02/22-rdf-syntax-ns#"
   xmlns:svg="http://www.w3.org/2000/svg"
   xmlns="http://www.w3.org/2000/svg"
   xmlns:sodipodi="http://sodipodi.sourceforge.net/DTD/sodipodi-0.dtd"
   xmlns:inkscape="http://www.inkscape.org/namespaces/inkscape"
   width="0.58187568in"
   height="0.77885324in"
   viewBox="0 0 41.895045 56.077503"
   xml:space="preserve"
   class="st10"
   version="1.1"
   id="svg84"
   sodipodi:docname="Managed Identity.svg"
   style="font-size:12px;overflow:visible;color-interpolation-filters:sRGB;fill:none;fill-rule:evenodd;stroke-linecap:square;stroke-miterlimit:3"
   inkscape:version="0.92.5 (2060ec1f9f, 2020-04-08)"><metadata
   id="metadata88"><rdf:RDF><cc:Work
       rdf:about=""><dc:format>image/svg+xml</dc:format><dc:type
         rdf:resource="http://purl.org/dc/dcmitype/StillImage" /></cc:Work></rdf:RDF></metadata><sodipodi:namedview
   pagecolor="#ffffff"
   bordercolor="#666666"
   borderopacity="1"
   objecttolerance="10"
   gridtolerance="10"
   guidetolerance="10"
   inkscape:pageopacity="0"
   inkscape:pageshadow="2"
   inkscape:window-width="640"
   inkscape:window-height="480"
   id="namedview86"
   showgrid="false"
   inkscape:zoom="1.8060178"
   inkscape:cx="35.078797"
   inkscape:cy="19.988511"
   inkscape:window-x="0"
   inkscape:window-y="0"
   inkscape:window-maximized="0"
   inkscape:current-layer="svg84" />
	<style
   type="text/css"
   id="style2">
	<![CDATA[
		.st1 {fill:#fcd116;stroke:none;stroke-linecap:butt;stroke-width:7.92}
		.st2 {fill:#ffffff;fill-opacity:0.5;stroke:none;stroke-linecap:butt;stroke-width:7.92}
		.st3 {fill:#ff8c00;fill-opacity:0.4;stroke:none;stroke-linecap:butt;stroke-width:7.92}
		.st4 {fill:#50e6ff;stroke:none;stroke-linecap:butt;stroke-width:18.6403}
		.st5 {fill:#ffffff;stroke:none;stroke-linecap:butt;stroke-width:18.6403}
		.st6 {fill:url(#grad0-19);stroke:none;stroke-linecap:butt;stroke-width:18.6403}
		.st7 {fill:#53b1e0;stroke:none;stroke-linecap:butt;stroke-width:18.6403}
		.st8 {fill:#9cebff;stroke:none;stroke-linecap:butt;stroke-width:18.6403}
		.st9 {fill:url(#grad0-27);stroke:none;stroke-linecap:butt;stroke-width:18.6403}
		.st10 {fill:none;fill-rule:evenodd;font-size:12px;overflow:visible;stroke-linecap:square;stroke-miterlimit:3}
	]]>
	</style>

	<defs
   id="Patterns_And_Gradients">
		<linearGradient
   id="grad0-19"
   x1="0"
   y1="59.14828"
   x2="13.900144"
   y2="59.14828"
   gradientTransform="scale(0.74531603,1.3417127)"
   gradientUnits="userSpaceOnUse">
			<stop
   offset="0"
   stop-color="#1988d9"
   stop-opacity="1"
   id="stop4" />
			<stop
   offset="0.9"
   stop-color="#54aef0"
   stop-opacity="1"
   id="stop6" />
		</linearGradient>
		<linearGradient
   id="grad0-27"
   x1="0"
   y1="100.31687"
   x2="11.069291"
   y2="100.31687"
   gradientTransform="scale(1.1364775,0.87991183)"
   gradientUnits="userSpaceOnUse">
			<stop
   offset="0.1"
   stop-color="#54aef0"
   stop-opacity="1"
   id="stop9" />
			<stop
   offset="0.29"
   stop-color="#4fabee"
   stop-opacity="1"
   id="stop11" />
			<stop
   offset="0.51"
   stop-color="#41a2e9"
   stop-opacity="1"
   id="stop13" />
			<stop
   offset="0.74"
   stop-color="#2a93e0"
   stop-opacity="1"
   id="stop15" />
			<stop
   offset="0.88"
   stop-color="#1988d9"
   stop-opacity="1"
   id="stop17" />
		</linearGradient>
	</defs>
	<g
   id="g82"
   transform="translate(-7.919315,-7.9168)">
		<title
   id="title21">Page-1</title>
		<g
   id="group13365-1"
   transform="translate(7.29677,-34.0157)">
			<title
   id="title23">Managed Identity.13365</title>
			<g
   id="group13366-2">
				<title
   id="title25"> MSI_2</title>
				<g
   id="shape13367-3">
					<title
   id="title27">path6</title>
					<path
   d="m 17.25,90.13 c -1.34,-0.96 -1.52,-1.42 -0.82,-2.26 l 7.42,-8.49 v -5.87 l 9.69,-9.68 c 2.49,-2.49 2.49,-6.53 0,-9.02 L 22.53,43.8 C 20.04,41.31 16,41.31 13.5,43.8 L 2.49,54.81 C 0,57.3 0,61.34 2.49,63.83 l 10.46,10.45 v 0.88 l -2.98,2.98 2.95,2.95 -2.95,2.94 2.95,2.95 -2.95,2.95 2.98,2.97 v 0.04 l 5.07,5.07 3.83,-4.67 z M 14.39,50.09 c 0,-3.23 3.91,-4.85 6.19,-2.56 2.28,2.28 0.67,6.18 -2.56,6.18 -2,0 -3.63,-1.62 -3.63,-3.62 z"
   class="st1"
   id="path29"
   inkscape:connector-curvature="0"
   style="fill:#fcd116;stroke:none;stroke-width:7.92000008;stroke-linecap:butt" />
				</g>
				<g
   id="shape13368-5"
   transform="translate(7.91124,-32.907)">
					<title
   id="title32">path8</title>
					<path
   d="m 0,90.11 h 20.92 v 3.01 H 0 Z M 0,95 h 20.92 v 3.01 H 0 Z"
   class="st2"
   id="path34"
   inkscape:connector-curvature="0"
   style="fill:#ffffff;fill-opacity:0.5;stroke:none;stroke-width:7.92000008;stroke-linecap:butt" />
				</g>
				<g
   id="shape13369-7"
   transform="translate(18.8516,-13.6516)">
					<title
   id="title37">path22</title>
					<path
   d="M 2.28,95.73 V 88.12 L 0,89.24 v 8.77 z"
   class="st3"
   id="path39"
   inkscape:connector-curvature="0"
   style="fill:#ff8c00;fill-opacity:0.4;stroke:none;stroke-width:7.92000008;stroke-linecap:butt" />
				</g>
			</g>
			<g
   id="group13370-9"
   transform="translate(17.5476,-1.23692)">
				<title
   id="title43">g16</title>
				<g
   id="shape13371-10">
					<title
   id="title45">path2</title>
					<path
   d="m 1.4,88.3 10.99,7.13 11.18,-7.16 1.4,1.64 -12.58,8.1 L 0,89.91 Z"
   class="st4"
   id="path47"
   inkscape:connector-curvature="0"
   style="fill:#50e6ff;stroke:none;stroke-width:18.64030075;stroke-linecap:butt" />
				</g>
				<g
   id="shape13372-12"
   transform="translate(2.23361,-4.0627)">
					<title
   id="title50">path4</title>
					<path
   d="M 0,91.45 10.16,79.36 20.52,91.46 10.16,98.01 Z"
   class="st5"
   id="path52"
   inkscape:connector-curvature="0"
   style="fill:#ffffff;stroke:none;stroke-width:18.64030075;stroke-linecap:butt" />
				</g>
				<g
   id="shape13373-14"
   transform="translate(2.23361,-4.0627)">
					<title
   id="title55">path6-5</title>
					<path
   d="M 10.16,79.36 V 98.01 L 0,91.45 Z"
   class="st4"
   id="path57"
   inkscape:connector-curvature="0"
   style="fill:#50e6ff;stroke:none;stroke-width:18.64030075;stroke-linecap:butt" />
				</g>
				<g
   id="shape13374-16"
   transform="translate(12.3889,-4.0627)">
					<title
   id="title60">path8-1</title>
					<path
   d="M 0,79.36 V 98.01 L 10.36,91.46 Z"
   class="st6"
   id="path62"
   inkscape:connector-curvature="0"
   style="fill:url(#grad0-19);stroke:none;stroke-width:18.64030075;stroke-linecap:butt" />
				</g>
				<g
   id="shape13375-20"
   transform="translate(12.3889,-4.0627)">
					<title
   id="title65">path10-1</title>
					<path
   d="M 0,88.99 10.36,91.46 0,98.01 Z"
   class="st7"
   id="path67"
   inkscape:connector-curvature="0"
   style="fill:#53b1e0;stroke:none;stroke-width:18.64030075;stroke-linecap:butt" />
				</g>
				<g
   id="shape13376-22"
   transform="translate(2.23361,-4.0627)">
					<title
   id="title70">path12-6</title>
					<path
   d="M 10.16,98.01 0,91.45 10.16,88.99 Z"
   class="st8"
   id="path72"
   inkscape:connector-curvature="0"
   style="fill:#9cebff;stroke:none;stroke-width:18.64030075;stroke-linecap:butt" />
				</g>
				<g
   id="shape13377-24"
   transform="translate(12.3889)">
					<title
   id="title75">path14-3</title>
					<path
   d="M 0,98.01 12.58,89.91 11.18,88.27 0,95.43 Z"
   class="st9"
   id="path77"
   inkscape:connector-curvature="0"
   style="fill:url(#grad0-27);stroke:none;stroke-width:18.64030075;stroke-linecap:butt" />
				</g>
			</g>
		</g>
	</g>
</svg>

<?xml version="1.0" encoding="UTF-8" standalone="no"?>
<!DOCTYPE svg PUBLIC "-//W3C//DTD SVG 1.1//EN" "http://www.w3.org/Graphics/SVG/1.1/DTD/svg11.dtd">
<!-- Generated by Microsoft Visio, SVG Export Managed Identity.svg Page-1 -->
<svg xmlns="http://www.w3.org/2000/svg" xmlns:xlink="http://www.w3.org/1999/xlink" xmlns:ev="http://www.w3.org/2001/xml-events"
		width="0.950789in" height="1.36119in" viewBox="0 0 68.4568 98.0058" xml:space="preserve" color-interpolation-filters="sRGB"
		class="st10">
	<style type="text/css">
	<![CDATA[
		.st1 {fill:#fcd116;stroke:none;stroke-linecap:butt;stroke-width:7.92}
		.st2 {fill:#ffffff;fill-opacity:0.5;stroke:none;stroke-linecap:butt;stroke-width:7.92}
		.st3 {fill:#ff8c00;fill-opacity:0.4;stroke:none;stroke-linecap:butt;stroke-width:7.92}
		.st4 {fill:#50e6ff;stroke:none;stroke-linecap:butt;stroke-width:18.6403}
		.st5 {fill:#ffffff;stroke:none;stroke-linecap:butt;stroke-width:18.6403}
		.st6 {fill:url(#grad0-19);stroke:none;stroke-linecap:butt;stroke-width:18.6403}
		.st7 {fill:#53b1e0;stroke:none;stroke-linecap:butt;stroke-width:18.6403}
		.st8 {fill:#9cebff;stroke:none;stroke-linecap:butt;stroke-width:18.6403}
		.st9 {fill:url(#grad0-27);stroke:none;stroke-linecap:butt;stroke-width:18.6403}
		.st10 {fill:none;fill-rule:evenodd;font-size:12px;overflow:visible;stroke-linecap:square;stroke-miterlimit:3}
	]]>
	</style>

	<defs id="Patterns_And_Gradients">
		<linearGradient id="grad0-19" x1="0" y1="0" x2="1" y2="0" gradientTransform="rotate(-133.54829372701 0.5 0.5)">
			<stop offset="0" stop-color="#1988d9" stop-opacity="1"/>
			<stop offset="0.9" stop-color="#54aef0" stop-opacity="1"/>
		</linearGradient>
		<linearGradient id="grad0-27" x1="0" y1="0" x2="1" y2="0" gradientTransform="rotate(65.834982258294 0.5 0.5)">
			<stop offset="0.1" stop-color="#54aef0" stop-opacity="1"/>
			<stop offset="0.29" stop-color="#4fabee" stop-opacity="1"/>
			<stop offset="0.51" stop-color="#41a2e9" stop-opacity="1"/>
			<stop offset="0.74" stop-color="#2a93e0" stop-opacity="1"/>
			<stop offset="0.88" stop-color="#1988d9" stop-opacity="1"/>
		</linearGradient>
	</defs>
	<g>
		<title>Page-1</title>
		<g id="group13063-1" transform="translate(7.29677,-34.0157)">
			<title>Managed Identity.13063</title>
			<g id="group13064-2">
				<title> MSI_2</title>
				<g id="shape13065-3">
					<title>path6</title>
					<path d="M17.25 90.13 C15.91 89.17 15.73 88.71 16.43 87.87 L23.85 79.38 L23.85 73.51 L33.54 63.83 C36.03 61.34
								 36.03 57.3 33.54 54.81 L22.53 43.8 C20.04 41.31 16 41.31 13.5 43.8 L2.49 54.81 C0 57.3 0 61.34 2.49
								 63.83 L12.95 74.28 L12.95 75.16 L9.97 78.14 L12.92 81.09 L9.97 84.03 L12.92 86.98 L9.97 89.93 L12.95
								 92.9 L12.95 92.94 L18.02 98.01 L21.85 93.34 L17.25 90.13 ZM14.39 50.09 C14.39 46.86 18.3 45.24 20.58
								 47.53 C22.86 49.81 21.25 53.71 18.02 53.71 C16.02 53.71 14.39 52.09 14.39 50.09 Z" class="st1"/>
				</g>
				<g id="shape13066-5" transform="translate(7.91124,-32.907)">
					<title>path8</title>
					<path d="M0 90.11 L20.92 90.11 L20.92 93.12 L0 93.12 L0 90.11 ZM0 95 L20.92 95 L20.92 98.01 L0 98.01 L0 95 Z"
							class="st2"/>
				</g>
				<g id="shape13067-7" transform="translate(18.8516,-13.6516)">
					<title>path22</title>
					<path d="M2.28 95.73 L2.28 88.12 L0 89.24 L0 98.01 L2.28 95.73 Z" class="st3"/>
				</g>
			</g>
			<g id="group13068-9" transform="translate(17.5476,-1.23692)">
				<title>g16</title>
				<g id="shape13069-10">
					<title>path2</title>
					<path d="M1.4 88.3 L12.39 95.43 L23.57 88.27 L24.97 89.91 L12.39 98.01 L0 89.91 L1.4 88.3 Z" class="st4"/>
				</g>
				<g id="shape13070-12" transform="translate(2.23361,-4.0627)">
					<title>path4</title>
					<path d="M0 91.45 L10.16 79.36 L20.52 91.46 L10.16 98.01 L0 91.45 Z" class="st5"/>
				</g>
				<g id="shape13071-14" transform="translate(2.23361,-4.0627)">
					<title>path6-5</title>
					<path d="M10.16 79.36 L10.16 98.01 L0 91.45 L10.16 79.36 Z" class="st4"/>
				</g>
				<g id="shape13072-16" transform="translate(12.3889,-4.0627)">
					<title>path8-1</title>
					<path d="M0 79.36 L0 98.01 L10.36 91.46 L0 79.36 Z" class="st6"/>
				</g>
				<g id="shape13073-20" transform="translate(12.3889,-4.0627)">
					<title>path10-1</title>
					<path d="M0 88.99 L10.36 91.46 L0 98.01 L0 88.99 Z" class="st7"/>
				</g>
				<g id="shape13074-22" transform="translate(2.23361,-4.0627)">
					<title>path12-6</title>
					<path d="M10.16 98.01 L0 91.45 L10.16 88.99 L10.16 98.01 Z" class="st8"/>
				</g>
				<g id="shape13075-24" transform="translate(12.3889,1.27898E-13)">
					<title>path14-3</title>
					<path d="M0 98.01 L12.58 89.91 L11.18 88.27 L0 95.43 L0 98.01 Z" class="st9"/>
				</g>
			</g>
		</g>
	</g>
</svg>
